X: 149126
T: MARCH
%R: march
B: James Kerr "Merry Melodies" v.1 p.49 s.1 #26
Z: 2016 John Chambers <jc:trillian.mit.edu>
M: C
L: 1/8
K: Am
|: (c/B/) |\
A>A A>B A>GE>G | c>d (3(edc) d2 (3(efg) |\
a>g e>d c>A G>E |[1 G2G2 G2z :|[2 A2A2 A2z ::\
ue |\
g>g g>a g>ec>e | g>g (3(gae) g3 ug |
a>g e>d c>A G>E | G2G2 G2- (3(GcB) |\
A>A A>B A>G E>G | c>d (3(edc) d2 (3(efg) |\
a>g e>d c>A G>E | A2A2 A2z :|

%%sep 1 1 500
%%sep 1 1 500

